public/assets/logo-background.svg

<svg fill="none" height="115" viewBox="0 0 221 115" width="221" xmlns="http://www.w3.org/2000/svg" xmlns:xlink="http://www.w3.org/1999/xlink"><clipPath id="a"><path d="m.114258 0h220v115h-220z"/></clipPath><g clip-path="url(#a)"><path d="m220.114.00697196h-4c-7.439 0-11.158-.00000597-14.217.78541504-8.833 2.267793-15.73 9.164853-17.998 17.997313-.785 3.059-.785 6.7785-.785 14.2173s0 11.1582-.785 14.2172c-2.268 8.8325-9.165 15.7296-17.998 17.9974-3.059.7854-6.778.7854-14.217.7854h-99.9997c-23.5702 0-35.3553 0-42.67771 7.3223-7.218036 7.2181-7.320868 18.7727-7.322332 41.6777v-115.007z" fill="#fffefc"/></g></svg>

<svg width="221" height="115" viewBox="0 0 221 115" fill="none" xmlns="http://www.w3.org/2000/svg">
<g clip-path="url(#clip0_8_6)">
<path d="M220.114 0.00697196H216.114C208.675 0.00697196 204.956 0.00696599 201.897 0.792387C193.064 3.06018 186.167 9.95724 183.899 18.7897C183.114 21.8487 183.114 25.5682 183.114 33.007C183.114 40.4458 183.114 44.1652 182.329 47.2242C180.061 56.0567 173.164 62.9538 164.331 65.2216C161.272 66.007 157.553 66.007 150.114 66.007H50.1143C26.5441 66.007 14.759 66.007 7.43659 73.3293C0.218554 80.5474 0.115722 92.102 0.114258 115.007V0L220.114 0.00697196Z" fill="#FFFEFC"/>
</g>
<defs>
<clipPath id="clip0_8_6">
<rect width="220" height="115" fill="white" transform="translate(0.114258)"/>
</clipPath>
</defs>
</svg>
